rospo-icon-theme-classic-common/32x32/apps/com.github.bcedu.museic.svg

<svg height="32" width="32" xmlns="http://www.w3.org/2000/svg"><path d="m27.005399 4.1200596-14.975053 3.4524991c-2.1107573.2660768-2.030346 2.4274413-2.030346 2.4274413v2 7.214844c-.4876926-.140479-.9924823-.21278-1.5-.214844-3.0375661 0-5.5 2.462434-5.5 5.5s2.4624339 5.5 5.5 5.5c2.842824-.0014 5.216171-2.168948 5.474609-5h .025391v-.5-13.341797l11-2.6162626v7.6729036c-.487693-.140479-.992482-.21278-1.5-.214844-3.037566 0-5.5 2.462434-5.5 5.5s2.462434 5.5 5.5 5.5c2.842824-.0014 5.216171-2.168948 5.474609-5h .025391v-14.2998565-1.7001435s.02603-2.3053357-1.994601-1.8799404z" opacity=".2"/><path d="m27.005399 3.1200596-14.975053 3.4524991c-2.1107573.2660768-2.030346 2.4274413-2.030346 2.4274413v2 7.214844c-.4876926-.140479-.9924823-.21278-1.5-.214844-3.0375661 0-5.5 2.462434-5.5 5.5s2.4624339 5.5 5.5 5.5c2.842824-.0014 5.216171-2.168948 5.474609-5h .025391v-.5-13.341797l11-2.6162626v7.6729036c-.487693-.140479-.992482-.21278-1.5-.214844-3.037566 0-5.5 2.462434-5.5 5.5s2.462434 5.5 5.5 5.5c2.842824-.0014 5.216171-2.168948 5.474609-5h .025391v-14.2998565-1.7001435s.02603-2.3053357-1.994601-1.8799404z" fill="#4f4f4f"/><path d="m27.361328 3.0703125c-.110806.0064829-.229179.0222409-.355469.0488281l-14.974609 3.453125c-2.1107573.2660768-2.03125 2.4277344-2.03125 2.4277344v1s-.0795073-2.1616576 2.03125-2.4277344l14.974609-3.453125c2.020631-.4253953 1.994141 1.8808594 1.994141 1.8808594v-1s .023417-2.0269307-1.638672-1.9296875zm-3.861328 11.9296875c-3.037566 0-5.5 2.462434-5.5 5.5 0 .168742.010516.335131.025391.5.252886-2.802974 2.605785-5 5.474609-5 .507518.002064 1.012307.074365 1.5.214844v-1c-.487693-.140479-.992482-.21278-1.5-.214844zm-15 3c-3.0375661 0-5.5 2.462434-5.5 5.5 0 .168742.010516.335131.0253906.5.2528865-2.802974 2.6057856-5 5.4746094-5 .5075177.002064 1.0123074.074365 1.5.214844v-1c-.4876926-.140479-.9924823-.21278-1.5-.214844z" fill="#fff" opacity=".1"/></svg>

<svg xmlns="http://www.w3.org/2000/svg" width="32" height="32" version="1">
 <path style="opacity:0.2" d="M 27.005399,4.1200596 12.030346,7.5725587 C 9.9195887,7.8386355 10,10 10,10 v 2 7.214844 C 9.5123074,19.074365 9.0075177,19.002064 8.5,19 5.4624339,19 3,21.462434 3,24.5 3,27.537566 5.4624339,30 8.5,30 c 2.842824,-0.0014 5.216171,-2.168948 5.474609,-5 H 14 V 24.5 11.158203 L 25,8.5419404 V 16.214844 C 24.512307,16.074365 24.007518,16.002064 23.5,16 20.462434,16 18,18.462434 18,21.5 c 0,3.037566 2.462434,5.5 5.5,5.5 2.842824,-0.0014 5.216171,-2.168948 5.474609,-5 H 29 V 7.7001435 6 c 0,0 0.02603,-2.3053357 -1.994601,-1.8799404 z"/>
 <path style="fill:#4f4f4f" d="M 27.005399,3.1200596 12.030346,6.5725587 C 9.9195887,6.8386355 10,9 10,9 v 2 7.214844 C 9.5123074,18.074365 9.0075177,18.002064 8.5,18 5.4624339,18 3,20.462434 3,23.5 3,26.537566 5.4624339,29 8.5,29 c 2.842824,-0.0014 5.216171,-2.168948 5.474609,-5 H 14 V 23.5 10.158203 L 25,7.5419404 V 15.214844 C 24.512307,15.074365 24.007518,15.002064 23.5,15 20.462434,15 18,17.462434 18,20.5 c 0,3.037566 2.462434,5.5 5.5,5.5 2.842824,-0.0014 5.216171,-2.168948 5.474609,-5 H 29 V 6.7001435 5 c 0,0 0.02603,-2.3053357 -1.994601,-1.8799404 z"/>
 <path style="opacity:0.1;fill:#ffffff" d="M 27.361328 3.0703125 C 27.250522 3.0767954 27.132149 3.0925534 27.005859 3.1191406 L 12.03125 6.5722656 C 9.9204927 6.8383424 10 9 10 9 L 10 10 C 10 10 9.9204927 7.8383424 12.03125 7.5722656 L 27.005859 4.1191406 C 29.02649 3.6937453 29 6 29 6 L 29 5 C 29 5 29.023417 2.9730693 27.361328 3.0703125 z M 23.5 15 C 20.462434 15 18 17.462434 18 20.5 C 18 20.668742 18.010516 20.835131 18.025391 21 C 18.278277 18.197026 20.631176 16 23.5 16 C 24.007518 16.002064 24.512307 16.074365 25 16.214844 L 25 15.214844 C 24.512307 15.074365 24.007518 15.002064 23.5 15 z M 8.5 18 C 5.4624339 18 3 20.462434 3 23.5 C 3 23.668742 3.010516 23.835131 3.0253906 24 C 3.2782771 21.197026 5.6311762 19 8.5 19 C 9.0075177 19.002064 9.5123074 19.074365 10 19.214844 L 10 18.214844 C 9.5123074 18.074365 9.0075177 18.002064 8.5 18 z"/>
</svg>
